src/actions/16/widget-alternatives.svg

<svg version="1.1" viewBox="0 0 16 16" xmlns="http://www.w3.org/2000/svg">
    <style
        type="text/css"
        id="current-color-scheme">
        .ColorScheme-Text {
            color:#363636;
        }
    </style>
    <path class="ColorScheme-Text" d="m14 3v3h-4v-3zm-1 1h-2v1h2zm-7.1719 0.67188 0.70703 0.70703-1.6211 1.6211h4.0859v1h-4.0859l1.6211 1.6211-0.70703 0.70703-2.8281-2.8281 2.8281-2.8281zm4.3438 2 2.8281 2.8281-2.8281 2.8281-0.70703-0.70703 1.6211-1.6211h-4.0859v-1h4.0859l-1.6211-1.6211 0.70703-0.70703zm-4.1719 4.3281v3h-4v-3zm-1 1h-2v1h2z" fill="currentColor"/>
</svg>

<svg xmlns="http://www.w3.org/2000/svg" viewBox="0 0 16 16">
    <path fill="currentColor" d="M14 3v3h-4V3zm-1 1h-2v1h2zm-7.172.672.707.707L4.914 7H9v1H4.914l1.621 1.621-.707.707L3 7.5l2.828-2.828zm4.344 2L13 9.5l-2.828 2.828-.707-.707L11.086 10H7V9h4.086L9.465 7.379l.707-.707zM6 11v3H2v-3zm-1 1H3v1h2z" style="color:#050505;opacity:.7"/>
</svg>
